build/img/icon-category/icon-category-9.svg

<svg width="26" height="26" viewBox="0 0 26 26" fill="none" xmlns="http://www.w3.org/2000/svg">
<path d="M13.001 25C10.8394 23.2731 10.7014 17.5905 14.105 16.2727C15.9112 15.5734 16.4963 19.4767 20.039 18.5004C20.7246 18.3116 22.3386 19.2727 21.7513 20.7389" stroke="#2C8ECC" stroke-width="2" stroke-miterlimit="10"/>
<path d="M6.64755 5.16833C7.34417 5.6767 7.94365 6.29852 8.4559 7.14724C8.90302 7.88797 9.89773 9.95088 8.98693 11.116C7.95579 12.4327 4.97168 12.8767 4.97168 14.0909C4.97168 15.004 6.27992 16.0469 6.97875 17.0658C8.02976 18.5985 7.55173 20.0843 6.97875 21.0323C6.68178 21.5243 6.18277 21.9225 5.65616 22.2356" stroke="#2C8ECC" stroke-width="2" stroke-miterlimit="10"/>
<path d="M23.8201 11.9091C23.9648 12.6138 24.0409 13.3436 24.0409 14.0909C24.0409 20.116 19.0983 25 13.0009 25C6.90355 25 1.96094 20.116 1.96094 14.0909C1.96094 8.06582 6.90355 3.18182 13.0009 3.18182C13.5463 3.18182 14.0829 3.2211 14.6073 3.29637" stroke="#2C8ECC" stroke-width="2" stroke-miterlimit="10"/>
<path d="M18.521 9.72726V13" stroke="#2C8ECC" stroke-width="2" stroke-miterlimit="10" stroke-linecap="square"/>
<path d="M18.521 9.72727C20.9599 9.72727 22.937 7.77361 22.937 5.36364C22.937 2.95367 20.9599 1 18.521 1C16.0821 1 14.105 2.95367 14.105 5.36364C14.105 7.77361 16.0821 9.72727 18.521 9.72727Z" stroke="#2C8ECC" stroke-width="2" stroke-miterlimit="10" stroke-linecap="square"/>
</svg>

<svg width="26" height="26" fill="none" xmlns="http://www.w3.org/2000/svg"><path d="M13.001 25c-2.162-1.727-2.3-7.41 1.104-8.727 1.806-.7 2.391 3.204 5.934 2.227.686-.188 2.3.773 1.712 2.239M6.648 5.168a6.61 6.61 0 011.808 1.98c.447.74 1.442 2.803.53 3.968-1.03 1.317-4.014 1.76-4.014 2.975 0 .913 1.308 1.956 2.007 2.975 1.05 1.533.573 3.018 0 3.966-.297.492-.796.89-1.323 1.204" stroke="#2C8ECC" stroke-width="2" stroke-miterlimit="10"/><path d="M23.82 11.91c.145.704.22 1.434.22 2.18C24.04 20.117 19.099 25 13 25 6.905 25 1.96 20.116 1.96 14.09 1.96 8.067 6.905 3.183 13 3.183c.546 0 1.083.04 1.607.114" stroke="#2C8ECC" stroke-width="2" stroke-miterlimit="10"/><path d="M18.521 9.727V13m0-3.273c2.439 0 4.416-1.953 4.416-4.363S20.96 1 18.521 1s-4.416 1.954-4.416 4.364 1.977 4.363 4.416 4.363z" stroke="#2C8ECC" stroke-width="2" stroke-miterlimit="10" stroke-linecap="square"/></svg>
